img/work/img-4.svg

<svg width="130" height="130" viewBox="0 0 130 130" fill="none" xmlns="http://www.w3.org/2000/svg">
<rect width="130" height="130" rx="18" fill="url(#paint0_linear)"/>
<g filter="url(#filter0_d)">
<rect x="34.9092" y="79" width="26.5879" height="13.4202" rx="4" transform="rotate(41.5941 34.9092 79)" fill="url(#paint1_linear)"/>
</g>
<circle cx="72" cy="45" r="16" fill="url(#paint2_linear)"/>
<path d="M62.5 71.0001C48.9 67.8001 43.1667 74.3334 42 78.0001L40 80L53 92.5C53.6667 91.8333 55.5 90.3 57.5 89.5C72.3 91.1 83.6667 88.8333 87.5 87.5L100 72L104 67.5L102 63C101 63.1667 98.5 63.6 96.5 64C94.5 64.4 90.3333 69.5 88.5 72L82.5 71.0001C78 71.3334 67.7 71.8001 62.5 71.0001Z" fill="url(#paint3_linear)"/>
<path d="M55.0093 44.968C55.0093 54.3246 62.6231 61.9361 71.9826 61.9361C81.3421 61.9361 88.9559 54.323 88.9559 44.968C88.9559 35.613 81.3405 28 71.9826 28C62.6247 28 55.0093 35.6115 55.0093 44.968ZM85.869 44.968C85.869 52.6227 79.6397 58.8517 71.9811 58.8517C64.3225 58.8517 58.0931 52.6242 58.0931 44.968C58.0931 37.3134 64.3225 31.0859 71.9811 31.0859C79.6397 31.0859 85.869 37.3134 85.869 44.968Z" fill="#8400E4"/>
<path d="M43.7728 106.543C44.3716 107.147 45.344 107.153 45.9506 106.556L53.4317 99.188C54.1487 98.4712 54.5844 97.5593 54.7274 96.607C54.93 95.2584 55.1582 93.7971 56.1404 92.851C57.0063 92.0147 58.1469 91.5533 59.3539 91.5533H79.8664C83.5058 91.5533 86.9446 90.157 89.5531 87.6188C89.6611 87.5139 88.7381 88.6001 103.548 70.9069C105.744 68.3085 105.415 64.4079 102.814 62.2107C100.229 60.0336 96.3581 60.3453 94.1556 62.8989L88.1862 69.0323C86.5169 70.7475 83.6115 70.4311 81.2502 70.0399C80.9243 69.9859 80.5912 69.958 80.2538 69.958H63.8476C63.3173 69.958 62.7942 69.8477 62.2972 69.6627C60.07 68.8339 57.7263 68.415 55.3178 68.415C48.8976 68.415 43.1803 70.9759 39.4993 75.822C38.4463 77.2083 36.6382 77.8965 35.0686 78.6496C34.6055 78.8717 34.1728 79.1748 33.7913 79.5568L26.4506 86.9167C25.8517 87.5169 25.8502 88.4906 26.4475 89.0923L43.7728 106.543ZM55.3162 71.4994C57.6792 71.4994 59.9651 71.9746 62.1089 72.9127C62.305 72.9976 62.5149 73.0424 62.7279 73.0424H80.2507C81.9238 73.0424 83.3376 74.4063 83.3376 76.1267C83.3376 77.8286 81.9531 79.2127 80.2507 79.2127H67.6607C66.8088 79.2127 66.1173 79.9039 66.1173 80.7557C66.1173 81.6074 66.8088 82.2986 67.6607 82.2986H80.2507C83.654 82.2986 86.4229 79.5305 86.4229 76.1283C86.4229 75.6169 86.5813 75.1031 86.9379 74.7366C95.2313 66.215 96.4195 64.9975 96.4723 64.9356C97.5728 63.638 99.5237 63.4729 100.823 64.5684C102.123 65.667 102.288 67.6173 101.185 68.9226L87.3444 85.4633C85.324 87.4028 82.6693 88.4705 79.8648 88.4705H59.3523C57.3428 88.4705 55.4397 89.2389 53.9966 90.6337C53.2682 91.3362 52.1113 91.3258 51.3956 90.6104L42.6917 81.9092C41.4469 80.6648 41.1203 78.7147 42.2221 77.342C45.2367 73.5862 49.8291 71.4994 55.3162 71.4994ZM35.9737 81.737C36.483 81.2278 37.264 81.1368 37.8845 81.5194C38.1515 81.6814 37.3844 80.984 51.2492 94.8244C51.8666 95.4416 51.8327 96.423 51.2569 96.9985L47.7181 100.484C46.1486 102.03 43.6244 102.016 42.0724 100.452L32.5235 90.8323C30.9727 89.27 30.9757 86.7482 32.5302 85.1896L35.9737 81.737Z" fill="#8400E4"/>
<path d="M70.1308 35.7134C70.1308 36.7965 69.394 37.7148 68.5871 38.4373C67.6404 39.285 67.0439 40.5151 67.0439 41.8822C67.0439 44.4342 69.1198 46.5095 71.6727 46.5095C72.5231 46.5095 73.2161 47.2008 73.2161 48.0525C73.2161 48.9042 72.5246 49.5955 71.6727 49.5955C71.0136 49.5955 70.3021 49.182 69.6693 48.429C69.1213 47.7763 68.1474 47.693 67.4945 48.2407C66.8417 48.7885 66.7583 49.7621 67.3062 50.4148C67.6898 50.8714 68.105 51.2636 68.5431 51.5871C69.4083 52.2261 70.1292 53.1488 70.1292 54.2244C70.1292 55.0761 70.8207 55.7673 71.6727 55.7673C72.5246 55.7673 73.2161 55.0776 73.2161 54.2244C73.2161 53.1413 73.9529 52.2229 74.7597 51.5004C75.7064 50.6527 76.303 49.4227 76.303 48.0556C76.303 45.5035 74.2271 43.4282 71.6742 43.4282C70.8238 43.4282 70.1308 42.737 70.1308 41.8853C70.1308 41.0335 70.8222 40.3423 71.6742 40.3423C72.2206 40.3423 72.7978 40.6216 73.3427 41.1493C73.9554 41.7418 74.9324 41.7248 75.5251 41.1138C76.1178 40.5012 76.1008 39.5245 75.4896 38.932C75.2601 38.7098 75.0305 38.5159 74.8027 38.3469C73.9404 37.707 73.2177 36.7872 73.2177 35.7134C73.2177 34.8617 72.5262 34.1704 71.6742 34.1704C70.8222 34.1704 70.1308 34.8601 70.1308 35.7134Z" fill="#8400E4"/>
<defs>
<filter id="filter0_d" x="22.647" y="77.6469" width="35.4996" height="34.3932" filterUnits="userSpaceOnUse" color-interpolation-filters="sRGB">
<feFlood flood-opacity="0" result="BackgroundImageFix"/>
<feColorMatrix in="SourceAlpha" type="matrix" values="0 0 0 0 0 0 0 0 0 0 0 0 0 0 0 0 0 0 127 0"/>
<feOffset dy="2"/>
<feGaussianBlur stdDeviation="2.5"/>
<feColorMatrix type="matrix" values="0 0 0 0 0 0 0 0 0 0 0 0 0 0 0 0 0 0 0.21 0"/>
<feBlend mode="normal" in2="BackgroundImageFix" result="effect1_dropShadow"/>
<feBlend mode="normal" in="SourceGraphic" in2="effect1_dropShadow" result="shape"/>
</filter>
<linearGradient id="paint0_linear" x1="88" y1="130" x2="85.5" y2="-5.21913e-06" gradientUnits="userSpaceOnUse">
<stop stop-color="#191540"/>
<stop offset="1" stop-color="#2A2759"/>
<stop offset="1" stop-color="#19173D"/>
</linearGradient>
<linearGradient id="paint1_linear" x1="48.5053" y1="79.3921" x2="44.7641" y2="111.127" gradientUnits="userSpaceOnUse">
<stop stop-color="#C1A1F3"/>
<stop offset="1" stop-color="#AE92DB" stop-opacity="0"/>
</linearGradient>
<linearGradient id="paint2_linear" x1="72" y1="29" x2="72" y2="61" gradientUnits="userSpaceOnUse">
<stop stop-color="#CBB1F9"/>
<stop offset="1" stop-color="#9276BD"/>
</linearGradient>
<linearGradient id="paint3_linear" x1="72" y1="63" x2="72" y2="92.5" gradientUnits="userSpaceOnUse">
<stop stop-color="#CBB1F9"/>
<stop offset="1" stop-color="#9276BD"/>
</linearGradient>
</defs>
</svg>

<svg width="130" height="130" fill="none" xmlns="http://www.w3.org/2000/svg"><rect width="130" height="130" rx="18" fill="url(#paint0_linear)"/><g filter="url(#filter0_d)"><rect x="34.909" y="79" width="26.588" height="13.42" rx="4" transform="rotate(41.594 34.91 79)" fill="url(#paint1_linear)"/></g><circle cx="72" cy="45" r="16" fill="url(#paint2_linear)"/><path d="M62.5 71c-13.6-3.2-19.333 3.333-20.5 7l-2 2 13 12.5c.667-.667 2.5-2.2 4.5-3 14.8 1.6 26.167-.667 30-2L100 72l4-4.5-2-4.5c-1 .167-3.5.6-5.5 1s-6.167 5.5-8 8l-6-1c-4.5.333-14.8.8-20 0z" fill="url(#paint3_linear)"/><path d="M55.01 44.968c0 9.357 7.613 16.968 16.973 16.968s16.973-7.613 16.973-16.968S81.34 28 71.983 28c-9.358 0-16.974 7.611-16.974 16.968zm30.859 0c0 7.655-6.23 13.884-13.888 13.884-7.658 0-13.888-6.228-13.888-13.884 0-7.655 6.23-13.882 13.888-13.882 7.659 0 13.888 6.227 13.888 13.882zm-42.096 61.575c.599.604 1.571.61 2.178.013l7.48-7.368a4.61 4.61 0 001.296-2.581c.203-1.349.431-2.81 1.413-3.756a4.602 4.602 0 013.214-1.298h20.512c3.64 0 7.079-1.396 9.687-3.934.108-.105-.815.981 13.995-16.712a6.177 6.177 0 00-.734-8.696 6.188 6.188 0 00-8.658.688l-5.97 6.133c-1.67 1.716-4.575 1.4-6.936 1.008a6.094 6.094 0 00-.996-.082H63.848c-.53 0-1.054-.11-1.55-.295a19.924 19.924 0 00-6.98-1.248c-6.42 0-12.138 2.56-15.819 7.407-1.053 1.386-2.86 2.075-4.43 2.828a4.639 4.639 0 00-1.278.907l-7.34 7.36c-.6.6-.6 1.574-.003 2.175l17.325 17.451zm11.543-35.044c2.363 0 4.65.476 6.793 1.414.196.085.406.13.619.13H80.25c1.673 0 3.087 1.363 3.087 3.084a3.09 3.09 0 01-3.087 3.086H67.66a1.544 1.544 0 000 3.086h12.59a6.178 6.178 0 006.172-6.17c0-.512.158-1.026.515-1.392 8.293-8.522 9.481-9.74 9.534-9.801a3.096 3.096 0 014.351-.368 3.09 3.09 0 01.362 4.355l-13.84 16.54a10.747 10.747 0 01-7.48 3.008H59.352a7.67 7.67 0 00-5.355 2.163 1.856 1.856 0 01-2.601-.024l-8.704-8.7c-1.245-1.245-1.572-3.195-.47-4.568 3.015-3.756 7.607-5.843 13.094-5.843zM35.974 81.737c.509-.51 1.29-.6 1.91-.218.267.162-.5-.535 13.365 13.305.618.618.584 1.599.008 2.175l-3.539 3.485a4 4 0 01-5.646-.032l-9.549-9.62a4 4 0 01.007-5.642l3.444-3.453z" fill="#8400E4"/><path d="M70.13 35.713c0 1.084-.736 2.002-1.543 2.724a4.613 4.613 0 00-1.543 3.445 4.633 4.633 0 004.629 4.628 1.544 1.544 0 010 3.086c-.66 0-1.37-.414-2.004-1.167a1.544 1.544 0 00-2.363 1.986 7.24 7.24 0 001.237 1.172c.865.64 1.586 1.562 1.586 2.637a1.544 1.544 0 003.087 0c0-1.083.737-2.001 1.544-2.724a4.613 4.613 0 001.543-3.444 4.633 4.633 0 00-4.629-4.628 1.544 1.544 0 010-3.086c.547 0 1.124.28 1.669.807a1.544 1.544 0 002.147-2.217 6.89 6.89 0 00-.687-.585c-.863-.64-1.585-1.56-1.585-2.634a1.544 1.544 0 00-3.087 0z" fill="#8400E4"/><defs><linearGradient id="paint0_linear" x1="88" y1="130" x2="85.5" y2="0" gradientUnits="userSpaceOnUse"><stop stop-color="#191540"/><stop offset="1" stop-color="#2A2759"/><stop offset="1" stop-color="#19173D"/></linearGradient><linearGradient id="paint1_linear" x1="48.505" y1="79.392" x2="44.764" y2="111.127" gradientUnits="userSpaceOnUse"><stop stop-color="#C1A1F3"/><stop offset="1" stop-color="#AE92DB" stop-opacity="0"/></linearGradient><linearGradient id="paint2_linear" x1="72" y1="29" x2="72" y2="61" gradientUnits="userSpaceOnUse"><stop stop-color="#CBB1F9"/><stop offset="1" stop-color="#9276BD"/></linearGradient><linearGradient id="paint3_linear" x1="72" y1="63" x2="72" y2="92.5" gradientUnits="userSpaceOnUse"><stop stop-color="#CBB1F9"/><stop offset="1" stop-color="#9276BD"/></linearGradient><filter id="filter0_d" x="22.647" y="77.647" width="35.5" height="34.393" filterUnits="userSpaceOnUse" color-interpolation-filters="sRGB"><feFlood flood-opacity="0" result="BackgroundImageFix"/><feColorMatrix in="SourceAlpha" values="0 0 0 0 0 0 0 0 0 0 0 0 0 0 0 0 0 0 127 0"/><feOffset dy="2"/><feGaussianBlur stdDeviation="2.5"/><feColorMatrix values="0 0 0 0 0 0 0 0 0 0 0 0 0 0 0 0 0 0 0.21 0"/><feBlend in2="BackgroundImageFix" result="effect1_dropShadow"/><feBlend in="SourceGraphic" in2="effect1_dropShadow" result="shape"/></filter></defs></svg>
